svgs/light/align-right.svg

<svg xmlns="http://www.w3.org/2000/svg" viewBox="0 0 448 512"><!--! Font Awesome Pro 6.4.0 by @fontawesome - https://fontawesome.com License - https://fontawesome.com/license (Commercial License) Copyright 2023 Fonticons, Inc. --><path d="M432 48c8.8 0 16 7.2 16 16s-7.2 16-16 16H176c-8.8 0-16-7.2-16-16s7.2-16 16-16H432zm0 128c8.8 0 16 7.2 16 16s-7.2 16-16 16H16c-8.8 0-16-7.2-16-16s7.2-16 16-16H432zm16 144c0 8.8-7.2 16-16 16H176c-8.8 0-16-7.2-16-16s7.2-16 16-16H432c8.8 0 16 7.2 16 16zM432 432c8.8 0 16 7.2 16 16s-7.2 16-16 16H16c-8.8 0-16-7.2-16-16s7.2-16 16-16H432z"/></svg>

<svg xmlns="http://www.w3.org/2000/svg" viewBox="0 0 448 512"><!--! Font Awesome Pro 6.3.0 by @fontawesome - https://fontawesome.com License - https://fontawesome.com/license (Commercial License) Copyright 2023 Fonticons, Inc. --><path d="M432 48C440.8 48 448 55.16 448 64C448 72.84 440.8 80 432 80H176C167.2 80 160 72.84 160 64C160 55.16 167.2 48 176 48H432zM432 176C440.8 176 448 183.2 448 192C448 200.8 440.8 208 432 208H16C7.164 208 0 200.8 0 192C0 183.2 7.164 176 16 176H432zM432 336H176C167.2 336 160 328.8 160 320C160 311.2 167.2 304 176 304H432C440.8 304 448 311.2 448 320C448 328.8 440.8 336 432 336zM432 432C440.8 432 448 439.2 448 448C448 456.8 440.8 464 432 464H16C7.164 464 0 456.8 0 448C0 439.2 7.164 432 16 432H432z"/></svg>
